X:1
T:Title
%%score { ( 1 3 ) | 2 }
L:1/8
M:3/4
K:F
V:1 treble nm="Grand Piano"
V:3 treble 
V:2 treble 
V:1
 z2 z2[Q:1/4=100] A>B | c3- c/d/ c>F | [FA]2 [EG]2 [EG]>[FA] | [GB]3- [GB]/[Ac]/ [GB]>[EG] | %4
[M:2/4] A4 |[M:1/4] A>B |[M:3/4] c3- c/d/ c>F | [FA]2 [EG]2 [EG]>[Ec] | =B3- B/G/ A>B | %9
[M:2/4] [Ec]4 |[M:1/4] d>c |[M:3/4] z z/ F/ F2 d>c | B4 z2 | B4 z2 |[M:2/4] A4 |[M:1/4] A>B | %16
[M:3/4] c3- c/A/ B>c |[M:7/8] e2 [Fd]3 [Fd]>[Fd] |[M:3/4] [Fc]3- [Fc]/[FA]/ [EA]<[EG] | %19
[M:2/4] [A,CF]4 |] %20
V:2
 z2 z2 [F,CF]>[G,B,F] | [F,A,F]3- [F,A,F]/[F,B,F]/[K:bass] [F,A,F]>[F,A,] | %2
 [C,C]2 [C,C]2 [C,C]>[C,C] | [C,C]3- [C,C]/[C,C]/ [C,C]>[C,C] |[M:2/4] [F,CF]4 | %5
[M:1/4] [F,CF]>[F,B,F] |[M:3/4] [F,A,F]3- [F,A,F]/[F,B,F]/ [F,A,F]>[F,A,] | %7
 [C,C]2 [C,C]2 [C,C]>[C,C] | [G,DF]3- [G,DF]/[G,=B,F]/ [G,CF]>[G,DF] |[M:2/4][K:bass] [C,C]4 | %10
[M:1/4] z2 |[M:3/4] [F,CF]>[F,C] [F,C]2 z2 | [C,C]>[C,C] [C,C]2 z2 | [C,C]>[C,C] [C,C]2 z2 | %14
[M:2/4] [F,CF]>[F,C] [F,C]2 |[M:1/4] [F,CF]>[G,CE] | %16
[M:3/4][K:treble] [A,CF]3- [A,CF]/[F,CF]/ [G,CF]>[A,CF] | %17
[M:7/8] [A,B,F]2[K:bass] [B,,B,]3 [=B,,_A,]>[B,,A,] |[M:3/4] [C,A,]3- [C,A,]/[C,C]/ [C,C]<[C,B,] | %19
[M:2/4] [F,,F,]4 |] %20
V:3
 x6 | x6 | x6 | x6 |[M:2/4] x4 |[M:1/4] x2 |[M:3/4] x6 | x6 | x6 |[M:2/4] x4 |[M:1/4] x2 | %11
[M:3/4] A4 z2 | E>E E2 C>C | E>E E2 A>_A |[M:2/4] z z/ F/ F2 |[M:1/4] x2 |[M:3/4] x6 |[M:7/8] x7 | %18
[M:3/4] x6 |[M:2/4] x4 |] %20

